assets/icons/banks/germany/dz_bank.svg

<?xml version="1.0" encoding="utf-8"?>
<svg xmlns="http://www.w3.org/2000/svg" width="300px" height="75px">
<path fill="#939598" d="M131.3,54.58h2.83v19.7h-2.83V54.58z M79.05,74.28h5.82c6.5,0,10.5-3.41,10.5-10.02c0-6.07-4.66-9.68-10.5-9.68h-5.82V74.28z M81.87,57.06h3.3c4.06,0,7.19,2.72,7.19,7.32c0,5.08-2.68,7.42-7.53,7.42h-2.97V57.06z M101.95,53.68h-2.99v2.99h2.99V53.68z M99.12,74.28h2.65V59.89h-2.65V74.28z M117.76,71.04c-0.65,0.54-2.68,1.44-4.44,1.44c-2.5,0-4.74-1.94-4.74-4.8h10.28c0-4.63-1.56-8.13-6.36-8.13c-4.07,0-6.75,3.02-6.75,7.28c0,4.69,2.35,7.79,7.46,7.79c2.37,0,3.53-0.57,4.55-0.94V71.04z M108.58,65.71c0.2-1.86,1.27-4.01,3.86-4.01c2.29,0,3.59,1.81,3.59,4.01H108.58z M139.35,59.89h2.57v2.29h0.06c0.79-1.64,2.71-2.63,4.71-2.63c3.73,0,5.4,2.32,5.4,6.18v8.55h-2.65v-7.45c0-3.36-0.73-5-3.05-5.14c-3.02,0-4.38,2.43-4.38,5.93v6.66h-2.65V59.89z M159.52,53.68h-2.99v2.99h2.99V53.68z M156.69,74.28h2.65V59.89h-2.65V74.28z M172.74,62.03h-3.81v7.88c0,1.67,1.01,2.57,2.23,2.57c0.82,0,1.41-0.26,1.8-0.51v2.27c-0.59,0.17-1.41,0.4-2.26,0.4c-2.74,0-4.43-1.3-4.43-4.18v-8.42h-3.25v-2.14h3.25v-3.34l2.65-0.84v4.18h3.81V62.03z M179.48,53.68h-2.99v2.99h2.99V53.68z M176.66,74.28h2.65V59.89h-2.65V74.28z M185.11,63.17c1.07-0.91,2.69-1.47,4.19-1.47c2.64,0,3.55,1.28,3.55,3.76c-1.05-0.06-1.78-0.06-2.83-0.06c-2.74,0-6.69,1.13-6.69,4.75c0,3.14,2.17,4.49,5.28,4.49c2.43,0,3.84-1.33,4.47-2.2h0.05v1.85h2.49c-0.06-0.41-0.11-1.18-0.11-2.82v-5.96c0-3.92-1.67-5.96-5.79-5.96c-1.84,0-3.42,0.56-4.75,1.35L185.11,63.17z M192.84,68.7c0,2.15-1.38,3.78-4.01,3.78c-1.21,0-2.68-0.82-2.68-2.34c0-2.55,3.56-2.77,4.99-2.77c0.57,0,1.13,0.06,1.7,0.06V68.7z M208.1,62.03h-3.81v7.88c0,1.67,1.02,2.57,2.23,2.57c0.82,0,1.41-0.26,1.8-0.51v2.27c-0.59,0.17-1.41,0.4-2.26,0.4c-2.74,0-4.43-1.3-4.43-4.18v-8.42h-3.24v-2.14h3.24v-3.34l2.65-0.84v4.18h3.81V62.03z M214.73,53.68h-2.99v2.99h2.99V53.68z M211.9,74.28h2.66V59.89h-2.66V74.28z M226.31,74.29h-3.16l-5.17-14.39h2.91l3.9,11.74h0.05l3.99-11.74h2.65L226.31,74.29z M234.67,74.29h2.55v-2.03h0.06c0.71,1.07,2.34,2.37,4.92,2.37c4.34,0,6.18-3.85,6.18-7.79c0-3.87-2.04-7.28-6.21-7.28c-2.51,0-3.95,0.98-4.77,2.32h-0.06v-8.76h-2.66V74.29z M241.59,61.7c2.88,0,4.01,2.74,3.95,5.34c0.06,2.26-1.13,5.45-3.98,5.45c-2.99,0-4.23-2.97-4.23-5.36C237.33,64.43,238.71,61.7,241.59,61.7 M253.2,63.17c1.07-0.91,2.69-1.47,4.18-1.47c2.66,0,3.56,1.28,3.56,3.76c-1.05-0.06-1.78-0.06-2.83-0.06c-2.74,0-6.69,1.13-6.69,4.75c0,3.14,2.17,4.49,5.28,4.49c2.43,0,3.84-1.33,4.46-2.2h0.06v1.85h2.49c-0.06-0.41-0.12-1.18-0.12-2.82v-5.96c0-3.92-1.66-5.96-5.78-5.96c-1.84,0-3.42,0.56-4.75,1.35L253.2,63.17z M260.93,68.7c0,2.15-1.38,3.78-4.01,3.78c-1.21,0-2.68-0.82-2.68-2.34c0-2.55,3.56-2.77,4.99-2.77c0.57,0,1.14,0.06,1.7,0.06V68.7z M268.28,59.89h2.57v2.29h0.05c0.8-1.64,2.71-2.63,4.72-2.63c3.72,0,5.4,2.32,5.4,6.18v8.55h-2.66v-7.45c0-3.36-0.73-5-3.05-5.14c-3.02,0-4.38,2.43-4.38,5.93v6.66h-2.65V59.89z M285.85,53.11h2.65v12.62l5.78-5.84h3.63l-6.7,6.39l7.54,8.01h-3.81l-6.43-7.39v7.39h-2.65V53.11z"/>
<g fill="#0066B3" ><path d="M86.39,6.81V33.1h4.31c6.47,0,12.7-4.78,12.7-13.14S97.17,6.81,90.7,6.81H86.39z M78.65,39.15V0.76H89.2c11.84,0,22.28,3.96,22.28,19.2c0,15.24-10.44,19.2-22.28,19.2H78.65z M113.58,39.15v-6.27l18.13-26.08H114.3V0.76h25.65v6.27l-18.3,26.07h18.68v6.06H113.58z M155.52,39.15V0.76h13.49c4.98,0,12.43,1.43,12.43,9.85c0,4.57-3.1,7.75-7.68,8.58c5.25,0.61,8.84,4.13,8.84,8.86c0,9.68-8.73,11.11-13.59,11.11H155.52z M163.26,6.81v9.46h3.15c3.27,0,7.3-0.71,7.3-4.67	c0-4.45-3.92-4.79-7.46-4.79H163.26z M163.26,21.99V33.1h3.65c3.59,0,7.96-0.88,7.96-5.34c0-5-4.09-5.77-7.96-5.77H163.26z	 M184.21,39.16l15.03-38.4h8.73l15.15,38.4h-8.58l-3.31-8.81h-15.65l-3.37,8.81H184.21z M209.08,24.3l-5.59-15.84L197.8,24.3	H209.08z M267.16,39.15V0.76h7.84v16.5l13.83-16.5h9.5l-15.86,18.1L299,39.15h-10.12l-13.88-17.83v17.83H267.16z M226.87,39.16	V0.76h9.51l14.81,28.71V0.76h7.42v38.4h-9.45l-14.87-28.72v28.72H226.87z"/><rect x="1" y="0.37" width="58.4" height="30.87"/>
</g>
<rect x="1" y="31.24" fill="#F37021" width="58.4" height="8.37"/>
<path fill="#FFFFFF" d="M59.4,29.78H37.7c1.04-5.4,2.14-11.16,2.4-12.33c0.34-1.61,2.26-1.42,1.99,0.22c-0.19,1.14-0.43,2.73-0.45,2.96c-0.26,2.12,4.8,2.39,5.39,0.12C48.53,14.8,49.76,9.3,49.76,9.3H43.7c-8.42,0-8.98,1.41-10.48,7.37l-2.97,13.13h-0.2L25.34,9.3H10.8l1.71,7.14l6.67,0.02l3.02,13.33H1l0,2.91h21.85l1.56,6.91h11.42l1.31-6.91H59.4L59.4,29.78z"/></svg>

<svg width="300" height="75" viewBox="0 0 300 75" fill="none" xmlns="http://www.w3.org/2000/svg">
<path d="M131.3 54.58H134.13V74.28H131.3V54.58ZM79.0498 74.28H84.8698C91.3698 74.28 95.3698 70.87 95.3698 64.26C95.3698 58.19 90.7098 54.58 84.8698 54.58H79.0498V74.28ZM81.8698 57.06H85.1698C89.2298 57.06 92.3598 59.78 92.3598 64.38C92.3598 69.46 89.6798 71.8 84.8298 71.8H81.8598V57.06H81.8698ZM101.95 53.68H98.9598V56.67H101.95V53.68ZM99.1198 74.28H101.77V59.89H99.1198V74.28ZM117.76 71.04C117.11 71.58 115.08 72.48 113.32 72.48C110.82 72.48 108.58 70.54 108.58 67.68H118.86C118.86 63.05 117.3 59.55 112.5 59.55C108.43 59.55 105.75 62.57 105.75 66.83C105.75 71.52 108.1 74.62 113.21 74.62C115.58 74.62 116.74 74.05 117.76 73.68V71.04ZM108.58 65.71C108.78 63.85 109.85 61.7 112.44 61.7C114.73 61.7 116.03 63.51 116.03 65.71H108.58ZM139.35 59.89H141.92V62.18H141.98C142.77 60.54 144.69 59.55 146.69 59.55C150.42 59.55 152.09 61.87 152.09 65.73V74.28H149.44V66.83C149.44 63.47 148.71 61.83 146.39 61.69C143.37 61.69 142.01 64.12 142.01 67.62V74.28H139.36V59.89H139.35ZM159.52 53.68H156.53V56.67H159.52V53.68ZM156.69 74.28H159.34V59.89H156.69V74.28ZM172.74 62.03H168.93V69.91C168.93 71.58 169.94 72.48 171.16 72.48C171.98 72.48 172.57 72.22 172.96 71.97V74.24C172.37 74.41 171.55 74.64 170.7 74.64C167.96 74.64 166.27 73.34 166.27 70.46V62.04H163.02V59.9H166.27V56.56L168.92 55.72V59.9H172.73V62.03H172.74ZM179.48 53.68H176.49V56.67H179.48V53.68ZM176.66 74.28H179.31V59.89H176.66V74.28ZM185.11 63.17C186.18 62.26 187.8 61.7 189.3 61.7C191.94 61.7 192.85 62.98 192.85 65.46C191.8 65.4 191.07 65.4 190.02 65.4C187.28 65.4 183.33 66.53 183.33 70.15C183.33 73.29 185.5 74.64 188.61 74.64C191.04 74.64 192.45 73.31 193.08 72.44H193.13V74.29H195.62C195.56 73.88 195.51 73.11 195.51 71.47V65.51C195.51 61.59 193.84 59.55 189.72 59.55C187.88 59.55 186.3 60.11 184.97 60.9L185.11 63.17ZM192.84 68.7C192.84 70.85 191.46 72.48 188.83 72.48C187.62 72.48 186.15 71.66 186.15 70.14C186.15 67.59 189.71 67.37 191.14 67.37C191.71 67.37 192.27 67.43 192.84 67.43V68.7ZM208.1 62.03H204.29V69.91C204.29 71.58 205.31 72.48 206.52 72.48C207.34 72.48 207.93 72.22 208.32 71.97V74.24C207.73 74.41 206.91 74.64 206.06 74.64C203.32 74.64 201.63 73.34 201.63 70.46V62.04H198.39V59.9H201.63V56.56L204.28 55.72V59.9H208.09V62.03H208.1ZM214.73 53.68H211.74V56.67H214.73V53.68ZM211.9 74.28H214.56V59.89H211.9V74.28ZM226.31 74.29H223.15L217.98 59.9H220.89L224.79 71.64H224.84L228.83 59.9H231.48L226.31 74.29ZM234.67 74.29H237.22V72.26H237.28C237.99 73.33 239.62 74.63 242.2 74.63C246.54 74.63 248.38 70.78 248.38 66.84C248.38 62.97 246.34 59.56 242.17 59.56C239.66 59.56 238.22 60.54 237.4 61.88H237.34V53.12H234.68V74.29H234.67ZM241.59 61.7C244.47 61.7 245.6 64.44 245.54 67.04C245.6 69.3 244.41 72.49 241.56 72.49C238.57 72.49 237.33 69.52 237.33 67.13C237.33 64.43 238.71 61.7 241.59 61.7ZM253.2 63.17C254.27 62.26 255.89 61.7 257.38 61.7C260.04 61.7 260.94 62.98 260.94 65.46C259.89 65.4 259.16 65.4 258.11 65.4C255.37 65.4 251.42 66.53 251.42 70.15C251.42 73.29 253.59 74.64 256.7 74.64C259.13 74.64 260.54 73.31 261.16 72.44H261.22V74.29H263.71C263.65 73.88 263.59 73.11 263.59 71.47V65.51C263.59 61.59 261.93 59.55 257.81 59.55C255.97 59.55 254.39 60.11 253.06 60.9L253.2 63.17ZM260.93 68.7C260.93 70.85 259.55 72.48 256.92 72.48C255.71 72.48 254.24 71.66 254.24 70.14C254.24 67.59 257.8 67.37 259.23 67.37C259.8 67.37 260.37 67.43 260.93 67.43V68.7ZM268.28 59.89H270.85V62.18H270.9C271.7 60.54 273.61 59.55 275.62 59.55C279.34 59.55 281.02 61.87 281.02 65.73V74.28H278.36V66.83C278.36 63.47 277.63 61.83 275.31 61.69C272.29 61.69 270.93 64.12 270.93 67.62V74.28H268.28V59.89ZM285.85 53.11H288.5V65.73L294.28 59.89H297.91L291.21 66.28L298.75 74.29H294.94L288.51 66.9V74.29H285.86V53.11H285.85Z" fill="white"/>
<path d="M86.3904 6.81V33.1H90.7004C97.1704 33.1 103.4 28.32 103.4 19.96C103.4 11.6 97.1704 6.81 90.7004 6.81H86.3904ZM78.6504 39.15V0.760002H89.2004C101.04 0.760002 111.48 4.72 111.48 19.96C111.48 35.2 101.04 39.16 89.2004 39.16H78.6504V39.15ZM113.58 39.15V32.88L131.71 6.8H114.3V0.760002H139.95V7.03L121.65 33.1H140.33V39.16H113.58V39.15ZM155.52 39.15V0.760002H169.01C173.99 0.760002 181.44 2.19 181.44 10.61C181.44 15.18 178.34 18.36 173.76 19.19C179.01 19.8 182.6 23.32 182.6 28.05C182.6 37.73 173.87 39.16 169.01 39.16H155.52V39.15ZM163.26 6.81V16.27H166.41C169.68 16.27 173.71 15.56 173.71 11.6C173.71 7.15 169.79 6.81 166.25 6.81H163.26ZM163.26 21.99V33.1H166.91C170.5 33.1 174.87 32.22 174.87 27.76C174.87 22.76 170.78 21.99 166.91 21.99H163.26ZM184.21 39.16L199.24 0.760002H207.97L223.12 39.16H214.54L211.23 30.35H195.58L192.21 39.16H184.21ZM209.08 24.3L203.49 8.46L197.8 24.3H209.08ZM267.16 39.15V0.760002H275V17.26L288.83 0.760002H298.33L282.47 18.86L299 39.15H288.88L275 21.32V39.15H267.16ZM226.87 39.16V0.760002H236.38L251.19 29.47V0.760002H258.61V39.16H249.16L234.29 10.44V39.16H226.87Z" fill="white"/>
<path d="M59.4 0.370003H1V31.24H59.4V0.370003Z" fill="#0066B3"/>
<path d="M59.4 31.24H1V39.61H59.4V31.24Z" fill="#F37021"/>
<path d="M59.4 29.78H37.7C38.74 24.38 39.84 18.62 40.1 17.45C40.44 15.84 42.36 16.03 42.09 17.67C41.9 18.81 41.66 20.4 41.64 20.63C41.38 22.75 46.44 23.02 47.03 20.75C48.53 14.8 49.76 9.3 49.76 9.3H43.7C35.28 9.3 34.72 10.71 33.22 16.67L30.25 29.8H30.05L25.34 9.3H10.8L12.51 16.44L19.18 16.46L22.2 29.79H1V32.7H22.85L24.41 39.61H35.83L37.14 32.7H59.4V29.78Z" fill="white"/>
</svg>
